.github/icon.svg

<svg width="1024" height="1024" xmlns="http://www.w3.org/2000/svg">
  <path fill="#000" d="M0 0h1024v1024H0z" />
  <path
    d="M422 368h36v36h-36v-36zM458 332h36v36h-36v-36zM494 296h36v36h-36v-36zM530 296h36v36h-36v-36zM566 296h36v36h-36v-36zM602 296h36v36h-36v-36zM638 296h36v36h-36v-36zM674 296h36v36h-36v-36zM710 296h36v36h-36v-36zM458 404h36v36h-36v-36zM494 404h36v36h-36v-36zM530 368h36v36h-36v-36zM566 404h36v36h-36v-36zM602 404h36v36h-36v-36zM530 440h36v36h-36v-36zM566 440h36v36h-36v-36zM566 476h36v36h-36v-36zM566 512h36v36h-36v-36zM530 512h36v36h-36v-36zM530 476h36v36h-36v-36zM530 548h36v36h-36v-36zM530 584h36v36h-36v-36zM566 584h36v36h-36v-36zM566 548h36v36h-36v-36zM638 440h36v36h-36v-36zM674 440h36v36h-36v-36zM638 512h36v36h-36v-36zM674 512h36v36h-36v-36zM710 404h36v36h-36v-36zM710 440h36v36h-36v-36zM710 476h36v36h-36v-36zM710 512h36v36h-36v-36zM710 548h36v36h-36v-36zM710 584h36v36h-36v-36zM746 584h36v36h-36v-36zM746 548h36v36h-36v-36zM746 512h36v36h-36v-36zM746 476h36v36h-36v-36zM746 440h36v36h-36v-36zM710 620h36v36h-36v-36zM674 620h36v36h-36v-36zM566 620h36v36h-36v-36zM602 620h36v36h-36v-36zM638 656h36v36h-36v-36zM602 656h36v36h-36v-36zM566 656h36v36h-36v-36zM638 692h36v36h-36v-36zM674 692h36v36h-36v-36zM710 692h36v36h-36v-36zM746 692h36v36h-36v-36zM638 332h36v36h-36v-36zM674 332h36v36h-36v-36zM710 332h36v36h-36v-36zM746 368h36v36h-36v-36zM746 404h36v36h-36v-36zM746 332h36v36h-36v-36zM782 332h36v36h-36v-36zM818 332h36v36h-36v-36zM818 368h36v36h-36v-36zM818 404h36v36h-36v-36zM818 440h36v36h-36v-36zM818 476h36v36h-36v-36zM818 512h36v36h-36v-36zM818 548h36v36h-36v-36zM854 332h36v36h-36v-36zM890 296h36v36h-36v-36zM818 584h36v36h-36v-36zM818 620h36v36h-36v-36zM782 656h36v36h-36v-36zM98 584h36v36H98v-36zM98 548h36v36H98v-36zM98 512h36v36H98v-36zM98 476h36v36H98v-36zM134 476h36v36h-36v-36zM134 512h36v36h-36v-36zM134 548h36v36h-36v-36zM134 584h36v36h-36v-36zM134 620h36v36h-36v-36zM170 620h36v36h-36v-36zM170 656h36v36h-36v-36zM134 656h36v36h-36v-36zM206 656h36v36h-36v-36zM206 692h36v36h-36v-36zM242 692h36v36h-36v-36zM278 692h36v36h-36v-36zM314 692h36v36h-36v-36zM350 692h36v36h-36v-36zM386 656h36v36h-36v-36zM422 656h36v36h-36v-36zM386 692h36v36h-36v-36zM458 620h36v36h-36v-36zM98 440h36v36H98v-36zM134 440h36v36h-36v-36zM134 404h36v36h-36v-36zM134 368h36v36h-36v-36zM170 332h36v36h-36v-36zM206 296h36v36h-36v-36zM206 440h36v36h-36v-36zM242 440h36v36h-36v-36zM206 512h36v36h-36v-36zM242 512h36v36h-36v-36zM278 512h36v36h-36v-36zM278 440h36v36h-36v-36zM278 476h36v36h-36v-36zM278 548h36v36h-36v-36zM314 512h36v36h-36v-36zM314 476h36v36h-36v-36zM314 440h36v36h-36v-36zM314 548h36v36h-36v-36zM242 620h36v36h-36v-36zM278 620h36v36h-36v-36zM278 584h36v36h-36v-36zM314 584h36v36h-36v-36zM386 584h36v36h-36v-36zM386 548h36v36h-36v-36zM386 512h36v36h-36v-36zM386 476h36v36h-36v-36zM386 440h36v36h-36v-36zM386 404h36v36h-36v-36zM314 404h36v36h-36v-36zM278 404h36v36h-36v-36zM278 368h36v36h-36v-36zM314 368h36v36h-36v-36zM314 332h36v36h-36v-36zM350 296h36v36h-36v-36zM386 296h36v36h-36v-36zM386 332h36v36h-36v-36zM422 332h36v36h-36v-36zM458 296h36v36h-36v-36z"
    fill="#DDD" />
</svg>

<svg width="1024" height="1024" viewBox="0 0 1024 1024" fill="none" xmlns="http://www.w3.org/2000/svg">
<rect width="1024" height="1024" fill="black"/>
<path d="M422 368H458V404H422V368Z" fill="#DDDDDD"/>
<path d="M458 332H494V368H458V332Z" fill="#DDDDDD"/>
<path d="M494 296H530V332H494V296Z" fill="#DDDDDD"/>
<path d="M530 296H566V332H530V296Z" fill="#DDDDDD"/>
<path d="M566 296H602V332H566V296Z" fill="#DDDDDD"/>
<path d="M602 296H638V332H602V296Z" fill="#DDDDDD"/>
<path d="M638 296H674V332H638V296Z" fill="#DDDDDD"/>
<path d="M674 296H710V332H674V296Z" fill="#DDDDDD"/>
<path d="M710 296H746V332H710V296Z" fill="#DDDDDD"/>
<path d="M458 404H494V440H458V404Z" fill="#DDDDDD"/>
<path d="M494 404H530V440H494V404Z" fill="#DDDDDD"/>
<path d="M530 368H566V404H530V368Z" fill="#DDDDDD"/>
<path d="M566 404H602V440H566V404Z" fill="#DDDDDD"/>
<path d="M602 404H638V440H602V404Z" fill="#DDDDDD"/>
<path d="M530 440H566V476H530V440Z" fill="#DDDDDD"/>
<path d="M566 440H602V476H566V440Z" fill="#DDDDDD"/>
<path d="M566 476H602V512H566V476Z" fill="#DDDDDD"/>
<path d="M566 512H602V548H566V512Z" fill="#DDDDDD"/>
<path d="M530 512H566V548H530V512Z" fill="#DDDDDD"/>
<path d="M530 476H566V512H530V476Z" fill="#DDDDDD"/>
<path d="M530 548H566V584H530V548Z" fill="#DDDDDD"/>
<path d="M530 584H566V620H530V584Z" fill="#DDDDDD"/>
<path d="M566 584H602V620H566V584Z" fill="#DDDDDD"/>
<path d="M566 548H602V584H566V548Z" fill="#DDDDDD"/>
<path d="M638 440H674V476H638V440Z" fill="#DDDDDD"/>
<path d="M674 440H710V476H674V440Z" fill="#DDDDDD"/>
<path d="M638 512H674V548H638V512Z" fill="#DDDDDD"/>
<path d="M674 512H710V548H674V512Z" fill="#DDDDDD"/>
<path d="M710 404H746V440H710V404Z" fill="#DDDDDD"/>
<path d="M710 440H746V476H710V440Z" fill="#DDDDDD"/>
<path d="M710 476H746V512H710V476Z" fill="#DDDDDD"/>
<path d="M710 512H746V548H710V512Z" fill="#DDDDDD"/>
<path d="M710 548H746V584H710V548Z" fill="#DDDDDD"/>
<path d="M710 584H746V620H710V584Z" fill="#DDDDDD"/>
<path d="M746 584H782V620H746V584Z" fill="#DDDDDD"/>
<path d="M746 548H782V584H746V548Z" fill="#DDDDDD"/>
<path d="M746 512H782V548H746V512Z" fill="#DDDDDD"/>
<path d="M746 476H782V512H746V476Z" fill="#DDDDDD"/>
<path d="M746 440H782V476H746V440Z" fill="#DDDDDD"/>
<path d="M710 620H746V656H710V620Z" fill="#DDDDDD"/>
<path d="M674 620H710V656H674V620Z" fill="#DDDDDD"/>
<path d="M566 620H602V656H566V620Z" fill="#DDDDDD"/>
<path d="M602 620H638V656H602V620Z" fill="#DDDDDD"/>
<path d="M638 656H674V692H638V656Z" fill="#DDDDDD"/>
<path d="M602 656H638V692H602V656Z" fill="#DDDDDD"/>
<path d="M566 656H602V692H566V656Z" fill="#DDDDDD"/>
<path d="M638 692H674V728H638V692Z" fill="#DDDDDD"/>
<path d="M674 692H710V728H674V692Z" fill="#DDDDDD"/>
<path d="M710 692H746V728H710V692Z" fill="#DDDDDD"/>
<path d="M746 692H782V728H746V692Z" fill="#DDDDDD"/>
<path d="M638 332H674V368H638V332Z" fill="#DDDDDD"/>
<path d="M674 332H710V368H674V332Z" fill="#DDDDDD"/>
<path d="M710 332H746V368H710V332Z" fill="#DDDDDD"/>
<path d="M746 368H782V404H746V368Z" fill="#DDDDDD"/>
<path d="M746 404H782V440H746V404Z" fill="#DDDDDD"/>
<path d="M746 332H782V368H746V332Z" fill="#DDDDDD"/>
<path d="M782 332H818V368H782V332Z" fill="#DDDDDD"/>
<path d="M818 332H854V368H818V332Z" fill="#DDDDDD"/>
<path d="M818 368H854V404H818V368Z" fill="#DDDDDD"/>
<path d="M818 404H854V440H818V404Z" fill="#DDDDDD"/>
<path d="M818 440H854V476H818V440Z" fill="#DDDDDD"/>
<path d="M818 476H854V512H818V476Z" fill="#DDDDDD"/>
<path d="M818 512H854V548H818V512Z" fill="#DDDDDD"/>
<path d="M818 548H854V584H818V548Z" fill="#DDDDDD"/>
<path d="M854 332H890V368H854V332Z" fill="#DDDDDD"/>
<path d="M890 296H926V332H890V296Z" fill="#DDDDDD"/>
<path d="M818 584H854V620H818V584Z" fill="#DDDDDD"/>
<path d="M818 620H854V656H818V620Z" fill="#DDDDDD"/>
<path d="M782 656H818V692H782V656Z" fill="#DDDDDD"/>
<path d="M98 584H134V620H98V584Z" fill="#DDDDDD"/>
<path d="M98 548H134V584H98V548Z" fill="#DDDDDD"/>
<path d="M98 512H134V548H98V512Z" fill="#DDDDDD"/>
<path d="M98 476H134V512H98V476Z" fill="#DDDDDD"/>
<path d="M134 476H170V512H134V476Z" fill="#DDDDDD"/>
<path d="M134 512H170V548H134V512Z" fill="#DDDDDD"/>
<path d="M134 548H170V584H134V548Z" fill="#DDDDDD"/>
<path d="M134 584H170V620H134V584Z" fill="#DDDDDD"/>
<path d="M134 620H170V656H134V620Z" fill="#DDDDDD"/>
<path d="M170 620H206V656H170V620Z" fill="#DDDDDD"/>
<path d="M170 656H206V692H170V656Z" fill="#DDDDDD"/>
<path d="M134 656H170V692H134V656Z" fill="#DDDDDD"/>
<path d="M206 656H242V692H206V656Z" fill="#DDDDDD"/>
<path d="M206 692H242V728H206V692Z" fill="#DDDDDD"/>
<path d="M242 692H278V728H242V692Z" fill="#DDDDDD"/>
<path d="M278 692H314V728H278V692Z" fill="#DDDDDD"/>
<path d="M314 692H350V728H314V692Z" fill="#DDDDDD"/>
<path d="M350 692H386V728H350V692Z" fill="#DDDDDD"/>
<path d="M386 656H422V692H386V656Z" fill="#DDDDDD"/>
<path d="M422 656H458V692H422V656Z" fill="#DDDDDD"/>
<path d="M386 692H422V728H386V692Z" fill="#DDDDDD"/>
<path d="M458 620H494V656H458V620Z" fill="#DDDDDD"/>
<path d="M98 440H134V476H98V440Z" fill="#DDDDDD"/>
<path d="M134 440H170V476H134V440Z" fill="#DDDDDD"/>
<path d="M134 404H170V440H134V404Z" fill="#DDDDDD"/>
<path d="M134 368H170V404H134V368Z" fill="#DDDDDD"/>
<path d="M170 332H206V368H170V332Z" fill="#DDDDDD"/>
<path d="M206 296H242V332H206V296Z" fill="#DDDDDD"/>
<path d="M206 440H242V476H206V440Z" fill="#DDDDDD"/>
<path d="M242 440H278V476H242V440Z" fill="#DDDDDD"/>
<path d="M206 512H242V548H206V512Z" fill="#DDDDDD"/>
<path d="M242 512H278V548H242V512Z" fill="#DDDDDD"/>
<path d="M278 512H314V548H278V512Z" fill="#DDDDDD"/>
<path d="M278 440H314V476H278V440Z" fill="#DDDDDD"/>
<path d="M278 476H314V512H278V476Z" fill="#DDDDDD"/>
<path d="M278 548H314V584H278V548Z" fill="#DDDDDD"/>
<path d="M314 512H350V548H314V512Z" fill="#DDDDDD"/>
<path d="M314 476H350V512H314V476Z" fill="#DDDDDD"/>
<path d="M314 440H350V476H314V440Z" fill="#DDDDDD"/>
<path d="M314 548H350V584H314V548Z" fill="#DDDDDD"/>
<path d="M242 620H278V656H242V620Z" fill="#DDDDDD"/>
<path d="M278 620H314V656H278V620Z" fill="#DDDDDD"/>
<path d="M278 584H314V620H278V584Z" fill="#DDDDDD"/>
<path d="M314 584H350V620H314V584Z" fill="#DDDDDD"/>
<path d="M386 584H422V620H386V584Z" fill="#DDDDDD"/>
<path d="M386 548H422V584H386V548Z" fill="#DDDDDD"/>
<path d="M386 512H422V548H386V512Z" fill="#DDDDDD"/>
<path d="M386 476H422V512H386V476Z" fill="#DDDDDD"/>
<path d="M386 440H422V476H386V440Z" fill="#DDDDDD"/>
<path d="M386 404H422V440H386V404Z" fill="#DDDDDD"/>
<path d="M314 404H350V440H314V404Z" fill="#DDDDDD"/>
<path d="M278 404H314V440H278V404Z" fill="#DDDDDD"/>
<path d="M278 368H314V404H278V368Z" fill="#DDDDDD"/>
<path d="M314 368H350V404H314V368Z" fill="#DDDDDD"/>
<path d="M314 332H350V368H314V332Z" fill="#DDDDDD"/>
<path d="M350 296H386V332H350V296Z" fill="#DDDDDD"/>
<path d="M386 296H422V332H386V296Z" fill="#DDDDDD"/>
<path d="M386 332H422V368H386V332Z" fill="#DDDDDD"/>
<path d="M422 332H458V368H422V332Z" fill="#DDDDDD"/>
<path d="M458 296H494V332H458V296Z" fill="#DDDDDD"/>
</svg>
